Numix/16/status/indicator-keyboard-Da-3.svg

<?xml version="1.0" encoding="UTF-8" standalone="no"?>
<svg
   xmlns:dc="http://purl.org/dc/elements/1.1/"
   xmlns:cc="http://creativecommons.org/ns#"
   xmlns:rdf="http://www.w3.org/1999/02/22-rdf-syntax-ns#"
   xmlns:svg="http://www.w3.org/2000/svg"
   xmlns="http://www.w3.org/2000/svg"
   xmlns:sodipodi="http://sodipodi.sourceforge.net/DTD/sodipodi-0.dtd"
   xmlns:inkscape="http://www.inkscape.org/namespaces/inkscape"
   viewBox="0 0 16 16"
   id="svg2"
   version="1.1"
   inkscape:version="0.91 r13725"
   sodipodi:docname="indicator-keyboard-Da-3.svg">
  <metadata
     id="metadata14">
    <rdf:RDF>
      <cc:Work
         rdf:about="">
        <dc:format>image/svg+xml</dc:format>
        <dc:type
           rdf:resource="http://purl.org/dc/dcmitype/StillImage" />
      </cc:Work>
    </rdf:RDF>
  </metadata>
  <defs
     id="defs12" />
  <sodipodi:namedview
     pagecolor="#ffffff"
     bordercolor="#666666"
     borderopacity="1"
     objecttolerance="10"
     gridtolerance="10"
     guidetolerance="10"
     inkscape:pageopacity="0"
     inkscape:pageshadow="2"
     inkscape:window-width="640"
     inkscape:window-height="480"
     id="namedview10"
     showgrid="false"
     inkscape:zoom="14.75"
     inkscape:cx="8"
     inkscape:cy="8"
     inkscape:window-x="65"
     inkscape:window-y="24"
     inkscape:window-maximized="0"
     inkscape:current-layer="svg2" />
  <path
     style="fill:#ececec;fill-opacity:1"
     d="M 1.5996094 0 C 0.71320937 2.9605947e-16 0 0.71320937 0 1.5996094 L 0 14.400391 C 2.9605947e-16 15.286791 0.71320937 16 1.5996094 16 L 14.400391 16 C 15.286791 16 16 15.286791 16 14.400391 L 16 1.5996094 C 16 0.71320937 15.286791 0 14.400391 0 L 1.5996094 0 z M 3.0664062 4.8046875 C 3.5704062 4.8046875 4.033125 4.8719062 4.453125 5.0039062 C 4.873125 5.1359063 5.2332031 5.3336562 5.5332031 5.5976562 C 5.8392031 5.8616563 6.0761406 6.1918906 6.2441406 6.5878906 C 6.4121406 6.9838906 6.4960937 7.4446562 6.4960938 7.9726562 C 6.4960938 8.5066563 6.4121406 8.9711875 6.2441406 9.3671875 C 6.0761406 9.7631875 5.8392031 10.093422 5.5332031 10.357422 C 5.2332031 10.621422 4.873125 10.819172 4.453125 10.951172 C 4.033125 11.083172 3.5704063 11.150391 3.0664062 11.150391 C 2.8144062 11.150391 2.5513906 11.135469 2.2753906 11.105469 C 1.9993906 11.081469 1.756875 11.042281 1.546875 10.988281 L 1.546875 4.9765625 C 1.756875 4.9165625 1.9993906 4.8736094 2.2753906 4.8496094 C 2.5513906 4.8196094 2.8144062 4.8046875 3.0664062 4.8046875 z M 3.1386719 5.3359375 C 2.8146719 5.3359375 2.5777344 5.3452812 2.4277344 5.3632812 C 2.2837344 5.3812812 2.1942031 5.3924375 2.1582031 5.3984375 L 2.1582031 10.556641 C 2.1942031 10.562641 2.2837344 10.573797 2.4277344 10.591797 C 2.5777344 10.609797 2.8146719 10.619141 3.1386719 10.619141 C 3.5886719 10.619141 3.9823594 10.559453 4.3183594 10.439453 C 4.6543594 10.313453 4.9360625 10.136203 5.1640625 9.9082031 C 5.3920625 9.6802031 5.5637344 9.4040781 5.6777344 9.0800781 C 5.7917344 8.7500781 5.8476563 8.3806563 5.8476562 7.9726562 C 5.8476562 7.5646562 5.7917344 7.199 5.6777344 6.875 C 5.5637344 6.551 5.3920625 6.274875 5.1640625 6.046875 C 4.9360625 5.818875 4.6543594 5.6453906 4.3183594 5.5253906 C 3.9823594 5.3993906 3.5886719 5.3359375 3.1386719 5.3359375 z M 9.234375 6.3359375 C 9.540375 6.3359375 9.7978127 6.3807031 10.007812 6.4707031 C 10.223812 6.5547031 10.397297 6.6740781 10.529297 6.8300781 C 10.661297 6.9800781 10.758359 7.1591406 10.818359 7.3691406 C 10.878359 7.5791406 10.908203 7.8086875 10.908203 8.0546875 L 10.908203 10.988281 C 10.848203 11.006281 10.760484 11.026781 10.646484 11.050781 C 10.532484 11.068781 10.4 11.089281 10.25 11.113281 C 10.1 11.137281 9.9320936 11.155969 9.7460938 11.167969 C 9.5660938 11.185969 9.3814531 11.195313 9.1894531 11.195312 C 8.9434531 11.195312 8.7139062 11.167281 8.5039062 11.113281 C 8.2999063 11.059281 8.1208437 10.975328 7.9648438 10.861328 C 7.8148437 10.741328 7.6935156 10.592109 7.6035156 10.412109 C 7.5195156 10.226109 7.4785156 10.000328 7.4785156 9.7363281 C 7.4785156 9.4843281 7.5270469 9.2698437 7.6230469 9.0898438 C 7.7190469 8.9098438 7.8533437 8.7624375 8.0273438 8.6484375 C 8.2013437 8.5284375 8.4084375 8.4407188 8.6484375 8.3867188 C 8.8884375 8.3327188 9.1496406 8.3066406 9.4316406 8.3066406 C 9.5156406 8.3066406 9.6033594 8.3122187 9.6933594 8.3242188 C 9.7893594 8.3302187 9.8788906 8.341375 9.9628906 8.359375 C 10.05289 8.371375 10.1275 8.3862969 10.1875 8.4042969 C 10.2535 8.4162969 10.298266 8.4294063 10.322266 8.4414062 L 10.322266 8.1523438 C 10.322266 7.9903437 10.311109 7.8355469 10.287109 7.6855469 C 10.263109 7.5295469 10.209 7.3914844 10.125 7.2714844 C 10.047 7.1454844 9.9332029 7.0466094 9.7832031 6.9746094 C 9.6392031 6.8966094 9.4470312 6.8574219 9.2070312 6.8574219 C 8.8650312 6.8574219 8.6094063 6.8816875 8.4414062 6.9296875 C 8.2734062 6.9776875 8.1502656 7.016875 8.0722656 7.046875 L 7.9921875 6.5332031 C 8.0941875 6.4852031 8.2489844 6.4404375 8.4589844 6.3984375 C 8.6749844 6.3564375 8.934375 6.3359375 9.234375 6.3359375 z M 13.085938 8.7539062 C 13.288737 8.7539062 13.461169 8.7793781 13.605469 8.8300781 C 13.753669 8.8807781 13.877109 8.953275 13.974609 9.046875 C 14.072109 9.136575 14.144606 9.2463 14.191406 9.375 C 14.238206 9.4997999 14.261719 9.6350031 14.261719 9.7832031 C 14.261719 10.021103 14.197059 10.217041 14.068359 10.369141 C 13.943559 10.517341 13.780931 10.625106 13.582031 10.691406 C 13.691231 10.718706 13.797037 10.759859 13.898438 10.818359 C 14.003737 10.872959 14.097788 10.945456 14.179688 11.035156 C 14.261588 11.120956 14.328206 11.226762 14.378906 11.351562 C 14.429606 11.476362 14.453125 11.623316 14.453125 11.791016 C 14.453125 11.962616 14.423728 12.119372 14.361328 12.263672 C 14.302828 12.407972 14.212697 12.535331 14.091797 12.644531 C 13.974797 12.749831 13.823925 12.834084 13.640625 12.896484 C 13.457325 12.954984 13.243747 12.984375 12.998047 12.984375 C 12.869347 12.984375 12.749825 12.974578 12.640625 12.955078 C 12.535325 12.939478 12.441275 12.919884 12.359375 12.896484 C 12.277475 12.873084 12.206938 12.849572 12.148438 12.826172 C 12.093838 12.802772 12.052691 12.783178 12.025391 12.767578 L 12.125 12.427734 C 12.1484 12.443334 12.187588 12.462928 12.242188 12.486328 C 12.296788 12.509728 12.361447 12.533241 12.435547 12.556641 C 12.513547 12.576141 12.599759 12.593775 12.693359 12.609375 C 12.790859 12.624975 12.896666 12.632813 13.009766 12.632812 C 13.380266 12.632812 13.644787 12.556397 13.804688 12.404297 C 13.964588 12.248297 14.044922 12.040597 14.044922 11.779297 C 14.044922 11.607697 14.011613 11.464663 13.945312 11.351562 C 13.882912 11.238462 13.794741 11.148331 13.681641 11.082031 C 13.572441 11.011831 13.443122 10.962847 13.294922 10.935547 C 13.150622 10.904347 12.997784 10.888672 12.833984 10.888672 L 12.775391 10.888672 L 12.775391 10.574219 L 12.910156 10.574219 C 13.015456 10.574219 13.121269 10.564422 13.230469 10.544922 C 13.343569 10.521522 13.445456 10.480375 13.535156 10.421875 C 13.628756 10.363375 13.705172 10.285 13.763672 10.1875 C 13.826072 10.09 13.857422 9.9646001 13.857422 9.8125 C 13.857422 9.6838 13.835869 9.5760281 13.792969 9.4863281 C 13.750069 9.3927281 13.691287 9.3182719 13.617188 9.2636719 C 13.546988 9.2090719 13.462734 9.1698844 13.365234 9.1464844 C 13.271634 9.1191844 13.173659 9.1054687 13.068359 9.1054688 C 12.857759 9.1054688 12.693172 9.1348594 12.576172 9.1933594 C 12.459172 9.2518594 12.363162 9.3067219 12.289062 9.3574219 L 12.125 9.0585938 C 12.164 9.0312937 12.212984 8.9999438 12.271484 8.9648438 C 12.333884 8.9297438 12.406381 8.8964344 12.488281 8.8652344 C 12.570181 8.8340344 12.660312 8.8085625 12.757812 8.7890625 C 12.859212 8.7656625 12.968937 8.7539062 13.085938 8.7539062 z M 9.4140625 8.8105469 C 9.2700625 8.8105469 9.1188906 8.8217031 8.9628906 8.8457031 C 8.8068906 8.8637031 8.66325 8.9084688 8.53125 8.9804688 C 8.39925 9.0464688 8.2910312 9.1397656 8.2070312 9.2597656 C 8.1230313 9.3797656 8.0820312 9.5383281 8.0820312 9.7363281 C 8.0820312 9.9103281 8.1081094 10.057734 8.1621094 10.177734 C 8.2221094 10.297734 8.30425 10.394797 8.40625 10.466797 C 8.51425 10.538797 8.6392031 10.592906 8.7832031 10.628906 C 8.9332031 10.658906 9.1011094 10.673828 9.2871094 10.673828 C 9.5151094 10.673828 9.7128594 10.666297 9.8808594 10.654297 C 10.054859 10.636297 10.202266 10.615797 10.322266 10.591797 L 10.322266 8.953125 C 10.256266 8.923125 10.151813 8.8932812 10.007812 8.8632812 C 9.8638127 8.8272813 9.6660625 8.8105469 9.4140625 8.8105469 z "
     id="path4" />
</svg>

<svg xmlns="http://www.w3.org/2000/svg" viewBox="0 0 16 16">
 <path d="m 1.6 0 c -0.886 0 -1.6 0.713 -1.6 1.6 l 0 12.801 c 0 0.886 0.713 1.6 1.6 1.6 l 12.801 0 c 0.886 0 1.6 -0.713 1.6 -1.6 l 0 -12.801 c 0 -0.886 -0.713 -1.6 -1.6 -1.6 l -12.801 0 z m 1.467 4.805 c 0.504 0 0.967 0.067 1.387 0.199 c 0.42 0.132 0.78 0.33 1.08 0.594 c 0.306 0.264 0.543 0.594 0.711 0.99 c 0.168 0.396 0.252 0.857 0.252 1.385 c 0 0.534 -0.084 0.999 -0.252 1.395 c -0.168 0.396 -0.405 0.726 -0.711 0.99 c -0.3 0.264 -0.66 0.462 -1.08 0.594 c -0.42 0.132 -0.883 0.199 -1.387 0.199 c -0.252 0 -0.515 -0.015 -0.791 -0.045 c -0.276 -0.024 -0.519 -0.063 -0.729 -0.117 l 0 -6.01 c 0.21 -0.06 0.453 -0.103 0.729 -0.127 c 0.276 -0.03 0.539 -0.045 0.791 -0.045 z m 0.072 0.531 c -0.324 0 -0.561 0.009 -0.711 0.027 c -0.144 0.018 -0.234 0.029 -0.27 0.035 l 0 5.158 c 0.036 0.006 0.126 0.017 0.27 0.035 c 0.15 0.018 0.387 0.027 0.711 0.027 c 0.45 0 0.844 -0.06 1.18 -0.18 c 0.336 -0.126 0.618 -0.303 0.846 -0.531 c 0.228 -0.228 0.4 -0.504 0.514 -0.828 c 0.114 -0.33 0.17 -0.699 0.17 -1.107 c 0 -0.408 -0.056 -0.774 -0.17 -1.098 c -0.114 -0.324 -0.286 -0.6 -0.514 -0.828 c -0.228 -0.228 -0.51 -0.401 -0.846 -0.521 c -0.336 -0.126 -0.73 -0.189 -1.18 -0.189 z m 6.096 1 c 0.306 0 0.563 0.045 0.773 0.135 c 0.216 0.084 0.389 0.203 0.521 0.359 c 0.132 0.15 0.229 0.329 0.289 0.539 c 0.06 0.21 0.09 0.44 0.09 0.686 l 0 2.934 c -0.06 0.018 -0.148 0.038 -0.262 0.063 c -0.114 0.018 -0.246 0.038 -0.396 0.063 c -0.15 0.024 -0.318 0.043 -0.504 0.055 c -0.18 0.018 -0.365 0.027 -0.557 0.027 c -0.246 0 -0.476 -0.028 -0.686 -0.082 c -0.204 -0.054 -0.383 -0.138 -0.539 -0.252 c -0.15 -0.12 -0.271 -0.269 -0.361 -0.449 c -0.084 -0.186 -0.125 -0.412 -0.125 -0.676 c 0 -0.252 0.049 -0.466 0.145 -0.646 c 0.096 -0.18 0.23 -0.327 0.404 -0.441 c 0.174 -0.12 0.381 -0.208 0.621 -0.262 c 0.24 -0.054 0.501 -0.08 0.783 -0.08 c 0.084 0 0.172 0.006 0.262 0.018 c 0.096 0.006 0.186 0.017 0.27 0.035 c 0.09 0.012 0.165 0.027 0.225 0.045 c 0.066 0.012 0.111 0.025 0.135 0.037 l 0 -0.289 c 0 -0.162 -0.011 -0.317 -0.035 -0.467 c -0.024 -0.156 -0.078 -0.294 -0.162 -0.414 c -0.078 -0.126 -0.192 -0.225 -0.342 -0.297 c -0.144 -0.078 -0.336 -0.117 -0.576 -0.117 c -0.342 0 -0.598 0.024 -0.766 0.072 c -0.168 0.048 -0.291 0.087 -0.369 0.117 l -0.08 -0.514 c 0.102 -0.048 0.257 -0.093 0.467 -0.135 c 0.216 -0.042 0.475 -0.063 0.775 -0.063 z m 3.852 2.418 c 0.203 0 0.375 0.025 0.52 0.076 c 0.148 0.051 0.272 0.123 0.369 0.217 c 0.098 0.09 0.17 0.199 0.217 0.328 c 0.047 0.125 0.07 0.26 0.07 0.408 c 0 0.238 -0.065 0.434 -0.193 0.586 c -0.125 0.148 -0.287 0.256 -0.486 0.322 c 0.109 0.027 0.215 0.068 0.316 0.127 c 0.105 0.055 0.199 0.127 0.281 0.217 c 0.082 0.086 0.149 0.192 0.199 0.316 c 0.051 0.125 0.074 0.272 0.074 0.439 c 0 0.172 -0.029 0.328 -0.092 0.473 c -0.059 0.144 -0.149 0.272 -0.27 0.381 c -0.117 0.105 -0.268 0.19 -0.451 0.252 c -0.183 0.059 -0.397 0.088 -0.643 0.088 c -0.129 0 -0.248 -0.01 -0.357 -0.029 c -0.105 -0.016 -0.199 -0.035 -0.281 -0.059 c -0.082 -0.023 -0.152 -0.047 -0.211 -0.07 c -0.055 -0.023 -0.096 -0.043 -0.123 -0.059 l 0.1 -0.34 c 0.023 0.016 0.063 0.035 0.117 0.059 c 0.055 0.023 0.119 0.047 0.193 0.07 c 0.078 0.019 0.164 0.037 0.258 0.053 c 0.098 0.016 0.203 0.023 0.316 0.023 c 0.37 0 0.635 -0.076 0.795 -0.229 c 0.16 -0.156 0.24 -0.364 0.24 -0.625 c 0 -0.172 -0.033 -0.315 -0.1 -0.428 c -0.062 -0.113 -0.151 -0.203 -0.264 -0.27 c -0.109 -0.07 -0.239 -0.119 -0.387 -0.146 c -0.144 -0.031 -0.297 -0.047 -0.461 -0.047 l -0.059 0 l 0 -0.314 l 0.135 0 c 0.105 0 0.211 -0.01 0.32 -0.029 c 0.113 -0.023 0.215 -0.065 0.305 -0.123 c 0.094 -0.059 0.17 -0.137 0.229 -0.234 c 0.062 -0.098 0.094 -0.223 0.094 -0.375 c 0 -0.129 -0.022 -0.236 -0.064 -0.326 c -0.043 -0.094 -0.102 -0.168 -0.176 -0.223 c -0.07 -0.055 -0.154 -0.094 -0.252 -0.117 c -0.094 -0.027 -0.192 -0.041 -0.297 -0.041 c -0.211 0 -0.375 0.029 -0.492 0.088 c -0.117 0.059 -0.213 0.113 -0.287 0.164 l -0.164 -0.299 c 0.039 -0.027 0.088 -0.059 0.146 -0.094 c 0.062 -0.035 0.135 -0.068 0.217 -0.1 c 0.082 -0.031 0.172 -0.057 0.27 -0.076 c 0.101 -0.023 0.211 -0.035 0.328 -0.035 z m -3.672 0.057 c -0.144 0 -0.295 0.011 -0.451 0.035 c -0.156 0.018 -0.3 0.063 -0.432 0.135 c -0.132 0.066 -0.24 0.159 -0.324 0.279 c -0.084 0.12 -0.125 0.279 -0.125 0.477 c 0 0.174 0.026 0.321 0.08 0.441 c 0.06 0.12 0.142 0.217 0.244 0.289 c 0.108 0.072 0.233 0.126 0.377 0.162 c 0.15 0.03 0.318 0.045 0.504 0.045 c 0.228 0 0.426 -0.008 0.594 -0.02 c 0.174 -0.018 0.321 -0.038 0.441 -0.063 l 0 -1.639 c -0.066 -0.03 -0.17 -0.06 -0.314 -0.09 c -0.144 -0.036 -0.342 -0.053 -0.594 -0.053 z" style="fill:#ececec;fill-opacity:1"/>
</svg>
